public/images/logo/javascript.svg

<svg width="18" height="18" viewBox="0 0 18 18" fill="none" xmlns="http://www.w3.org/2000/svg">
<path d="M18 0H0V18H18V0Z" fill="currentColor"/>
<path d="M12.0903 14.0623C12.4529 14.6543 12.9246 15.0894 13.7589 15.0894C14.4597 15.0894 14.9074 14.7391 14.9074 14.2551C14.9074 13.6751 14.4474 13.4697 13.676 13.1323L13.2531 12.9508C12.0326 12.4308 11.2217 11.7794 11.2217 10.4023C11.2217 9.13368 12.1883 8.16797 13.6989 8.16797C14.7743 8.16797 15.5474 8.54225 16.1046 9.52225L14.7874 10.368C14.4974 9.84797 14.1846 9.64311 13.6989 9.64311C13.2034 9.64311 12.8894 9.9574 12.8894 10.368C12.8894 10.8754 13.2037 11.0808 13.9294 11.3951L14.3523 11.5763C15.7894 12.1925 16.6009 12.8208 16.6009 14.2334C16.6009 15.7563 15.4046 16.5905 13.798 16.5905C12.2271 16.5905 11.2123 15.842 10.7157 14.8608L12.0903 14.0623ZM6.11514 14.2088C6.38085 14.6803 6.62257 15.0788 7.20371 15.0788C7.75942 15.0788 8.11 14.8614 8.11 14.016V8.26454H9.80142V14.0388C9.80142 15.7903 8.77457 16.5874 7.27571 16.5874C5.92142 16.5874 5.13714 15.8865 4.73828 15.0424L6.11514 14.2088Z" fill="#F8F9FB"/>
</svg>

<svg width="18" height="18" fill="none" xmlns="http://www.w3.org/2000/svg"><path d="M18 0H0v18h18V0z" fill="currentColor"/><path d="M12.09 14.062c.363.592.835 1.027 1.669 1.027.7 0 1.148-.35 1.148-.834 0-.58-.46-.785-1.231-1.123l-.423-.181c-1.22-.52-2.031-1.172-2.031-2.549 0-1.268.966-2.234 2.477-2.234 1.075 0 1.848.374 2.406 1.354l-1.318.846c-.29-.52-.602-.725-1.088-.725-.496 0-.81.314-.81.725 0 .507.315.713 1.04 1.027l.423.181c1.437.617 2.249 1.245 2.249 2.657 0 1.523-1.196 2.357-2.803 2.357-1.57 0-2.586-.748-3.082-1.73l1.374-.798zm-5.975.147c.266.471.508.87 1.089.87.555 0 .906-.218.906-1.063V8.265h1.691v5.774c0 1.751-1.026 2.548-2.525 2.548-1.355 0-2.139-.7-2.538-1.545l1.377-.833z" fill="#F8F9FB"/></svg>
